assets/icons/qvision/no_encryption.svg

<svg xmlns="http://www.w3.org/2000/svg" height="24" viewBox="0 0 24 24" width="24"><path d="M0 0h24v24H0zm0 0h24v24H0zm0 0h24v24H0V0zm0 0h24v24H0V0z" fill="none"/><path d="M21 21.78L4.22 5 3 6.22l2.04 2.04C4.42 8.6 4 9.25 4 10v10c0 1.1.9 2 2 2h12c.23 0 .45-.05.66-.12L19.78 23 21 21.78zM8.9 6c0-1.71 1.39-3.1 3.1-3.1s3.1 1.39 3.1 3.1v2H9.66L20 18.34V10c0-1.1-.9-2-2-2h-1V6c0-2.76-2.24-5-5-5-2.56 0-4.64 1.93-4.94 4.4L8.9 7.24V6z"/></svg>

<svg width="24" height="24" viewBox="0 0 24 24" fill="none" xmlns="http://www.w3.org/2000/svg">
<g clip-path="url(#clip0_147_5980)">
<path d="M21 21.78L4.22 5L3 6.22L5.04 8.26C4.42 8.6 4 9.25 4 10V20C4 21.1 4.9 22 6 22H18C18.23 22 18.45 21.95 18.66 21.88L19.78 23L21 21.78ZM8.9 6C8.9 4.29 10.29 2.9 12 2.9C13.71 2.9 15.1 4.29 15.1 6V8H9.66L20 18.34V10C20 8.9 19.1 8 18 8H17V6C17 3.24 14.76 1 12 1C9.44 1 7.36 2.93 7.06 5.4L8.9 7.24V6Z" fill="#323232"/>
</g>
<defs>
<clipPath id="clip0_147_5980">
<rect width="24" height="24" fill="white"/>
</clipPath>
</defs>
</svg>
